assets/icons/nordplayer_logo_white_transparent.svg

<?xml version="1.0" encoding="UTF-8" standalone="no"?>
<!-- Created with Inkscape (http://www.inkscape.org/) -->

<svg
   width="16"
   height="16"
   viewBox="0 0 4.2333333 4.2333333"
   version="1.1"
   id="svg1"
   xml:space="preserve"
   inkscape:version="1.4.3 (0d15f75042, 2025-12-25)"
   sodipodi:docname="nordplayer_logo_white_transparent.svg"
   xmlns:inkscape="http://www.inkscape.org/namespaces/inkscape"
   xmlns:sodipodi="http://sodipodi.sourceforge.net/DTD/sodipodi-0.dtd"
   xmlns="http://www.w3.org/2000/svg"
   xmlns:svg="http://www.w3.org/2000/svg"><sodipodi:namedview
     id="namedview1"
     pagecolor="#505050"
     bordercolor="#eeeeee"
     borderopacity="1"
     inkscape:showpageshadow="0"
     inkscape:pageopacity="0"
     inkscape:pagecheckerboard="0"
     inkscape:deskcolor="#505050"
     inkscape:document-units="mm"
     inkscape:zoom="32"
     inkscape:cx="5.609375"
     inkscape:cy="8.859375"
     inkscape:window-width="1536"
     inkscape:window-height="790"
     inkscape:window-x="0"
     inkscape:window-y="0"
     inkscape:window-maximized="1"
     inkscape:current-layer="g1" /><defs
     id="defs1"><linearGradient
       id="swatch23"
       inkscape:swatch="solid"><stop
         style="stop-color:#3b4252;stop-opacity:1;"
         offset="0"
         id="stop23" /></linearGradient></defs><g
     inkscape:label="Layer 1"
     inkscape:groupmode="layer"
     id="layer1"><g
       id="g22"
       style="fill:#eceff4;fill-opacity:0"
       transform="matrix(0.04737487,0,0,0.04737487,-0.33052552,-9.2374347)" /><g
       id="g1"
       transform="matrix(1.7970156,0,0,1.7970156,-2.29978,-2.2838325)"><g
         id="g2"
         transform="translate(0,0.01380327)"><path
           style="fill:#eceff4;fill-opacity:1;stroke-width:0.0125346"
           d="m 3.1784446,2.4031242 c 0.222498,-0.2300656 0.2300661,-0.240661 0.2300661,-0.240661 0,0 0.069625,-0.016649 0.069625,0.056003 C 3.3055864,2.3940429 3.3071001,2.3955565 3.3071001,2.3955565 l 0.2981774,-0.00303 c 0,0 0.062057,0.046921 -0.00151,0.081734 -0.063571,0.034812 -0.00454,0.00151 -0.00454,0.00151 l -0.293637,-0.00151 0.169522,0.1725493 c 0,0 -0.00303,0.071139 -0.060544,0.062057 -0.057516,-0.00908 -0.00151,0 -0.00151,0 l -0.2326868,-0.2282853 -0.1638735,0.092062 0.065084,0.078707 c 0,0 -0.010595,0.063571 -0.05903,0.052976 -0.048435,-0.010595 0,0 0,0 l -0.086274,-0.081734 -0.00577,-0.3624973 0.08599,-0.099148 c 0,0 0.072652,-0.00605 0.06357,0.060543 -0.00908,0.066598 -4.2e-6,4.03e-5 -4.2e-6,4.03e-5 L 3.00893,2.3047375 Z"
           id="path6-92-9"
           sodipodi:nodetypes="cccccscccsccccsccccsccc" /><path
           style="fill:#eceff4;fill-opacity:1;stroke-width:0.0125346"
           d="M 1.8134595,1.692025 C 1.5027116,1.6154028 1.4959412,1.6140716 1.4959412,1.6140716 c 0,0 -0.049404,-0.051808 0.013394,-0.088343 0.2385324,0.06085 0.2390796,0.058781 0.2390796,0.058781 L 1.5958511,1.3282997 c 0,0 0.00935,-0.077235 0.071407,-0.039796 0.062059,0.037441 0.00359,0.00316 0.00359,0.00316 l 0.1463581,0.2545674 0.063895,-0.2332989 c 0,0 0.063011,-0.033157 0.084086,0.021124 0.021074,0.054281 7.627e-4,0.00131 7.627e-4,0.00131 l -0.078219,0.3229582 0.1598954,0.088316 0.035301,-0.095836 c 0,0 0.060275,-0.02281 0.075475,0.024382 0.015199,0.047193 0,0 0,0 L 2.1311364,1.7908599 1.8095131,1.9814807 1.6917695,1.9536722 c 0,0 -0.041768,-0.059753 0.020363,-0.085394 0.062132,-0.025641 1.421e-4,-4.69e-5 1.421e-4,-4.69e-5 l 0.1009142,0.017144 z"
           id="path6-2-06-7"
           sodipodi:nodetypes="cccccscccsccccsccccsccc" /><path
           style="fill:#eceff4;fill-opacity:1;stroke-width:0.0125346"
           d="m 1.8759299,3.2119933 c 0.088187,0.3076661 0.090256,0.3324379 0.090256,0.3324379 0,0 -0.02035,0.068634 -0.083292,0.032347 C 1.8169652,3.3395994 1.8148978,3.3401546 1.8148978,3.3401546 L 1.6685937,3.5999892 c 0,0 -0.071644,0.030327 -0.070054,-0.042132 0.00159,-0.072461 9.57e-4,-0.00468 9.57e-4,-0.00468 L 1.7474644,3.2995415 1.5133093,3.360224 c 0,0 -0.060118,-0.038153 -0.023523,-0.083446 0.036594,-0.045293 7.58e-4,-0.00131 7.58e-4,-0.00131 L 1.8331726,3.179155 1.8278126,2.981786 1.7059284,3.017024 c 0,0 -0.049782,-0.04093 -0.016412,-0.077599 0.03337,-0.036669 0,0 0,0 l 0.1139001,-0.03392 0.3253981,0.1841025 0.034477,0.1159671 c 0,0 -0.031711,0.064761 -0.084872,0.02363 -0.05316,-0.041131 9.47e-5,1.895e-4 9.47e-5,1.895e-4 L 2.0415363,3.1198254 Z"
           id="path6-2-0-8-7"
           sodipodi:nodetypes="cccccscccsccccsccccsccc" /><path
           style="fill:#eceff4;fill-opacity:1;stroke-width:0.0125346"
           d="M 2.4243902,2.5176866 2.3441196,2.404238 2.2756226,2.45133 l 0.07813,0.1113078 c -0.026248,0.1014523 -0.057962,0.2081315 -0.083481,0.311449 0,0 0.019265,0.074919 0.084551,0.028897 l 0.057794,-0.226897 v -0.00107 L 2.547471,2.907265 2.466131,3.2262054 c 0,0 0.04067,0.053514 0.085622,0.019265 L 2.608477,3.017503 2.7700878,3.2850705 c 0,0 0.064216,0.00963 0.070638,-0.052443 L 2.6876765,2.9671997 2.9156439,3.0303457 c 0,0 0.064216,-0.019265 0.025687,-0.080271 L 2.627742,2.8623127 2.498239,2.6332751 2.724066,2.6942801 c 0,0 0.057794,-0.022476 0.024616,-0.082411 z"
           id="path7-9-6"
           sodipodi:nodetypes="cccccccccccccccccccccc" /><path
           style="fill:#eceff4;fill-opacity:1;stroke-width:0.0125346"
           d="m 2.3186884,2.3087672 -0.058378,0.1261185 0.074956,0.035931 0.057588,-0.1231965 c 0.1010426,-0.027784 0.2093401,-0.053432 0.3116371,-0.082777 0,0 0.055362,-0.054028 -0.017067,-0.087708 l -0.225528,0.062926 -9.286e-4,5.306e-4 0.1341926,-0.232631 0.3170658,-0.088365 c 0,0 0.026139,-0.061924 -0.025951,-0.083837 L 2.6603532,1.9001457 2.8118395,1.6267192 c 0,0 -0.02364,-0.060479 -0.080663,-0.035121 L 2.5772804,1.8565343 2.5184616,1.6274123 c 0,0 -0.048696,-0.046082 -0.082397,0.017718 L 2.5161957,1.9607552 2.3821215,2.1871474 2.3225125,1.9609475 c 0,0 -0.048281,-0.038915 -0.083719,0.019712 z"
           id="path7-6-26-7"
           sodipodi:nodetypes="cccccccccccccccccccccc" /><path
           style="fill:#eceff4;fill-opacity:1;stroke-width:0.0125346"
           d="M 2.1404961,2.4675498 2.2789226,2.45522 2.2726654,2.372332 2.1371652,2.3838886 C 2.0626744,2.3101823 1.986415,2.2291225 1.9099454,2.1551078 c 0,0 -0.074444,-0.021024 -0.067497,0.05855 L 2.0095032,2.3777166 2.010427,2.3782567 1.7418664,2.3780198 1.5070946,2.1473217 c 0,0 -0.066707,0.00824 -0.05971,0.064319 l 0.1685181,0.1636717 -0.3125443,0.00513 c 0,0 -0.040619,0.050662 0.00981,0.087429 l 0.3063884,0.00119 -0.1692221,0.165289 c 0,0 -0.015642,0.065193 0.056465,0.062569 L 1.7403528,2.4700047 2.0034472,2.4732499 1.837152,2.6377658 c 0,0 -0.00964,0.061257 0.058853,0.062721 z"
           id="path7-6-7-6-3"
           sodipodi:nodetypes="cccccccccccccccccccccc" /><path
           style="fill:#eceff4;fill-opacity:1;stroke-width:0.0390369;stroke-dasharray:none;paint-order:fill markers stroke"
           d="m 1.8882644,1.6526352 c 0,0 -0.05908,-0.019959 -0.078385,0.038223 l -2.842e-4,1.4954053 c 0,0 0.011079,0.050687 0.071668,0.04494 L 3.1809124,2.4808 c 0,0 0.036146,-0.036422 0.00125,-0.081431 z"
           id="path8-4-6"
           sodipodi:nodetypes="ccccccc" /></g></g></g></svg>

<svg xmlns="http://www.w3.org/2000/svg" xml:space="preserve" width="16" height="16" viewBox="0 0 4.233 4.233"><path d="M3.178 2.403c.223-.23.23-.24.23-.24s.07-.017.07.055c-.172.176-.17.178-.17.178l.297-.003s.062.046-.001.081c-.064.035-.005.002-.005.002l-.293-.002.17.173s-.004.07-.061.062c-.058-.01-.002 0-.002 0L3.18 2.48l-.164.092.066.078s-.011.064-.06.053c-.048-.01 0 0 0 0l-.086-.081-.005-.363.085-.1s.073-.005.064.061c-.009.067 0 0 0 0l-.071.084ZM1.813 1.692l-.317-.078s-.05-.052.013-.088c.239.06.24.059.24.059l-.153-.257s.01-.077.071-.04c.062.038.004.004.004.004l.146.254.064-.233s.063-.033.084.021 0 .001 0 .001l-.077.323.16.089.035-.096s.06-.023.075.024c.016.047 0 0 0 0l-.027.116-.321.19-.118-.027s-.042-.06.02-.086l.101.017zM1.876 3.212c.088.308.09.332.09.332s-.02.07-.083.033c-.066-.237-.068-.237-.068-.237l-.146.26s-.072.03-.07-.042v-.005l.148-.253-.234.06s-.06-.038-.023-.083c.036-.046 0-.002 0-.002l.343-.096-.005-.197-.122.035s-.05-.04-.016-.078c.033-.036 0 0 0 0l.113-.033.326.184.034.116s-.031.064-.085.023c-.053-.04 0 0 0 0l-.036-.11ZM2.424 2.518l-.08-.114-.068.047.078.112c-.026.101-.058.208-.084.311 0 0 .02.075.085.029l.058-.227v-.001l.134.232-.08.32s.04.053.085.018l.056-.227.162.267s.064.01.07-.052l-.152-.266.228.063s.064-.019.025-.08l-.313-.088-.13-.229.226.061s.058-.022.025-.082z" style="fill:#eceff4;fill-opacity:1;stroke-width:.0125346" transform="matrix(1.80552 0 0 1.8183 -2.325 -2.324)"/><path d="m2.319 2.309-.059.126.075.036.058-.123c.1-.028.21-.054.311-.083 0 0 .056-.054-.017-.088l-.225.063H2.46l.134-.232.317-.088s.026-.062-.026-.084L2.66 1.9l.152-.273s-.024-.06-.08-.035l-.155.265-.059-.23s-.048-.046-.082.018l.08.316-.134.226-.06-.226s-.048-.039-.083.02z" style="fill:#eceff4;fill-opacity:1;stroke-width:.0125346" transform="matrix(1.80552 0 0 1.8183 -2.325 -2.324)"/><path d="m2.14 2.468.139-.013-.006-.083-.136.012c-.074-.074-.15-.155-.227-.229 0 0-.074-.02-.068.059l.168.164h-.268l-.235-.23s-.067.008-.06.064l.169.163-.313.005s-.04.051.01.088l.307.001-.17.165s-.015.066.057.063l.233-.227.263.003-.166.165s-.01.061.059.062z" style="fill:#eceff4;fill-opacity:1;stroke-width:.0125346" transform="matrix(1.80552 0 0 1.8183 -2.325 -2.324)"/><path d="M1.888 1.653s-.059-.02-.078.038v1.495s.01.051.071.045l1.3-.75s.036-.037.001-.082z" style="fill:#eceff4;fill-opacity:1;stroke-width:.0390369;stroke-dasharray:none;paint-order:fill markers stroke" transform="matrix(1.80552 0 0 1.8183 -2.325 -2.324)"/></svg>
